X: 191
T:The Prayermaster Jig
M:6/8
L:1/8
R:jig
N:Smoothly
Z:Seanchas
K:G
|EFE G2 A|BAG F2 E|DED F2 A|G2 B AFD
|EFE G2 A|BAG FGA|B2 E  EFD|E4 E2 D:|
|G2B d2e|dBG dBG|D2F A2B|AFD AFD
|G2B d2e|dBG GBd|e2E EFD|E4 E2D:|

